X:18239
T:Vaqueirada (CT 260)
R:Vaqueirada
C:Tradicional
S:Música Tradicional Asturiana, (C) Tello & Tito. Asturies, 2001.
S:http://pagina.de/MusTradAst <telloytito@asturies.org>
N:Canción de baile de pandero.
N:Es propia de los vaqueiros de las brañas de Balmonte.
O:Balmonte
A:Asturies
Z:Cancioneru de Torner 260
M:6/8
L:1/8
Q:3/8=88
W:En lo alto del puertu
W:tengo el mio querer.
W:Mañana, vida mía,
W:te volveré a ver.
K:G
|A2c ddc|AGA BBc|B3- B2z|
A2c ddc|AGB AGF|G3- G2z||


